src/assets/svgs/refactor/scroll-logo.svg

<svg fill="none" height="24" viewBox="0 0 81 24" width="81" xmlns="http://www.w3.org/2000/svg"><g fill="#101010"><path d="m30.6132 6.74148c-1.5002 0-2.6563.87689-2.6563 2.17867 0 1.26565.9796 1.69955 2.1974 1.93455l1.5355.2532c2.0385.3435 3.4416 1.3018 3.4416 3.5799 0 2.3775-1.9061 3.7697-4.3329 3.7697-2.1885 0-4.2535-1.3198-4.5536-3.9053-.0264-.217.1412-.4068.353-.4068h.9178c.1765 0 .3265.1356.353.3164.1941 1.8261 1.5796 2.5493 2.9386 2.5493 1.4826 0 2.6563-.7503 2.6563-2.2691 0-1.356-.9443-1.8261-2.1974-2.0702l-1.5178-.2712c-2.1268-.3616-3.4593-1.4103-3.4593-3.39909 0-2.30523 1.9591-3.7155 4.3152-3.7155 1.8797 0 3.9535 1.08482 4.3595 3.66126.0353.21697-.1324.42489-.353.42489h-.9531c-.1677 0-.3177-.12656-.3442-.29832-.2735-1.70859-1.4913-2.33236-2.7003-2.33236z"/><path d="m41.2378 8.15167c2.268 0 3.8829 1.2385 4.4565 3.26353.0618.226-.1059.461-.3442.461h-1.0678c-.15 0-.2823-.0994-.3353-.2441-.3971-1.1571-1.3149-1.81704-2.7092-1.81704-1.8973 0-2.9563 1.58204-2.9563 3.48954 0 1.8984 1.0678 3.4895 2.9563 3.4895 1.3943 0 2.3121-.66 2.7092-1.8171.053-.1447.1853-.2441.3353-.2441h1.0678c.2383 0 .406.2351.3354.4611-.6089 2.1154-2.1709 3.2634-4.4477 3.2634-2.921 0-4.7741-2.3142-4.7741-5.1528-.0089-2.8296 1.8531-5.15293 4.7741-5.15293z"/><path d="m47.4065 16.812h2.2856v-6.5089h-2.0385c-.1941 0-.353-.1628-.353-.36165v-.9221c0-.19888.1589-.3616.353-.3616h2.7798c.5824 0 1.059.48817 1.059 1.08482v.26213c.503-1.23847 1.5884-1.54584 3.2739-1.54584.6442 0 1.0766.10849 1.3237.19889.1412.05424.2295.18984.2295.33448v.95826c0 .24411-.2295.42491-.4589.34351-.3-.0994-.7236-.1898-1.2796-.1898-1.8002 0-3.0798 1.2566-3.0798 3.4352v3.2726h2.9386c.1942 0 .353.1627.353.3616v.9221c0 .1989-.1588.3616-.353.3616h-7.0244c-.1942 0-.353-.1627-.353-.3616v-.9221c-.0089-.1989.15-.3616.3441-.3616z"/><path d="m57.6609 13.3046c0-2.8296 1.8355-5.15293 4.8183-5.15293 2.9827 0 4.8183 2.31433 4.8183 5.15293s-1.8356 5.1528-4.8183 5.1528c-2.9828 0-4.8183-2.3142-4.8183-5.1528zm4.8183 3.4895c1.9149 0 3.018-1.5821 3.018-3.4895 0-1.8985-1.1031-3.48954-3.018-3.48954-1.915 0-3.0181 1.58204-3.0181 3.48954 0 1.9074 1.1031 3.4895 3.0181 3.4895z"/><path d="m71.286 16.8936h2.7621c.1941 0 .353.1627.353.3616v.8497c0 .1989-.1589.3616-.353.3616h-4.1388c-.1942 0-.353-.1627-.353-.3616v-11.15551h-1.3767c-.1941 0-.3529-.16272-.3529-.3616v-.84978c0-.19888.1588-.36161.3529-.36161h2.0386c.5824 0 1.0589.48817 1.0589 1.08482v10.43238z"/><path d="m77.3926 16.8936h2.7622c.1941 0 .353.1627.353.3616v.8497c0 .1989-.1589.3616-.353.3616h-4.1388c-.1942 0-.353-.1627-.353-.3616v-11.15551h-1.3767c-.1941 0-.353-.16272-.353-.3616v-.84978c0-.19888.1589-.36161.353-.36161h2.0385c.5825 0 1.059.48817 1.059 1.08482v10.43238z"/></g><path d="m20.7734 15.8086v-13.28899c-.0177-1.11194-.8825-2.006915-1.9679-2.006915h-13.53715c-2.92098.045201-5.26835 2.495085-5.26835 5.496415 0 1.0125.264742 1.88035.670679 2.63973.344161.63281.882471 1.22946 1.411951 1.67246.15002.1265.07943.0723.53831.3616.63538.3977 1.359.5966 1.359.5966l-.00882 7.9463c.01765.3797.05295.7413.15002 1.0758.30004 1.121 1.05896 1.9798 2.09146 2.3956.43241.1718.91777.2893 1.43843.2984l10.81027.0361c2.1532 0 3.9005-1.7899 3.9005-4.0048.0088-1.3108-.6265-2.486-1.5884-3.2183z" fill="#ffeeda"/><path d="m21.038 19.1264c-.0441 1.4193-1.1825 2.5583-2.5768 2.5583l-7.4392-.0271c.5912-.7051.953-1.6182.953-2.6126 0-1.5639-.9089-2.6397-.9089-2.6397h7.4039c1.4208 0 2.5768 1.1842 2.5768 2.6397z" fill="#ebc28e"/><path d="m2.78861 9.20034c-.856-.8317-1.45608-1.90748-1.45608-3.18214v-.1356c.0706-2.17868 1.81789-3.93247 3.94465-3.99575h13.53712c.353.01808.6354.27121.6354.64185v11.7341c.3088.0543.4588.0995.7589.208.2383.0904.5648.2802.5648.2802v-12.2223c-.0177-1.11194-.8825-2.00691-1.9679-2.00691h-13.53715c-2.92098.0452-5.26835 2.49508-5.26835 5.49641 0 1.74475.776576 3.23638 2.04733 4.285.08825.0724.16767.1628.39712.1628.39711 0 .6795-.3255.66185-.67805-.00883-.29833-.13237-.40681-.31769-.58761z" fill="#101010"/><path d="m18.4613 15.0312h-10.6161c-.7148.009-1.28841.5967-1.28841 1.3289v1.5639c.01765.7233.61774 1.338 1.33254 1.338h.78539v-1.338h-.78539v-1.5277h.43241c1.34135 0 2.32976 1.2746 2.32976 2.6397 0 1.2114-1.07666 2.7572-2.8769 2.6307-1.59727-.1085-2.46209-1.564-2.46209-2.6307v-13.25288c0-.59665-.47653-1.08482-1.05896-1.08482h-1.05897v1.35603h.7854v12.99067c-.04412 2.6398 1.83554 3.9687 3.79462 3.9687l10.6956.0361c2.1532 0 3.9005-1.7899 3.9005-4.0048 0-2.2148-1.7561-4.0138-3.9094-4.0138zm2.5768 4.0952c-.0441 1.4193-1.1825 2.5584-2.5768 2.5584l-7.4392-.0272c.5913-.7051.9531-1.6182.9531-2.6126 0-1.5639-.909-2.6397-.909-2.6397h7.404c1.4207 0 2.5768 1.1843 2.5768 2.6397z" fill="#101010"/><path d="m15.6019 6.29859h-8.004v-1.35602h8.004c.3618 0 .6619.29832.6619.67801 0 .37064-.2912.67801-.6619.67801z" fill="#101010"/><path d="m15.6019 12.6807h-8.004v-1.3561h8.004c.3618 0 .6619.2984.6619.6781 0 .3706-.2912.678-.6619.678z" fill="#101010"/><path d="m17.0139 9.48963h-9.416v-1.35602h9.4071c.3619 0 .6619.29832.6619.67801.0088.37064-.2912.67801-.653.67801z" fill="#101010"/></svg>

<svg width="81" height="24" viewBox="0 0 81 24" fill="none" xmlns="http://www.w3.org/2000/svg">
<path d="M30.6132 6.74148C29.113 6.74148 27.9569 7.61837 27.9569 8.92015C27.9569 10.1858 28.9365 10.6197 30.1543 10.8547L31.6898 11.1079C33.7283 11.4514 35.1314 12.4097 35.1314 14.6878C35.1314 17.0653 33.2253 18.4575 30.7985 18.4575C28.61 18.4575 26.545 17.1377 26.2449 14.5522C26.2185 14.3352 26.3861 14.1454 26.5979 14.1454H27.5157C27.6922 14.1454 27.8422 14.281 27.8687 14.4618C28.0628 16.2879 29.4483 17.0111 30.8073 17.0111C32.2899 17.0111 33.4636 16.2608 33.4636 14.742C33.4636 13.386 32.5193 12.9159 31.2662 12.6718L29.7484 12.4006C27.6216 12.039 26.2891 10.9903 26.2891 9.00151C26.2891 6.69628 28.2482 5.28601 30.6043 5.28601C32.484 5.28601 34.5578 6.37083 34.9638 8.94727C34.9991 9.16424 34.8314 9.37216 34.6108 9.37216H33.6577C33.49 9.37216 33.34 9.2456 33.3135 9.07384C33.04 7.36525 31.8222 6.74148 30.6132 6.74148Z" fill="#101010"/>
<path d="M41.2378 8.15167C43.5058 8.15167 45.1207 9.39017 45.6943 11.4152C45.7561 11.6412 45.5884 11.8762 45.3501 11.8762H44.2823C44.1323 11.8762 44 11.7768 43.947 11.6321C43.5499 10.475 42.6321 9.81506 41.2378 9.81506C39.3405 9.81506 38.2815 11.3971 38.2815 13.3046C38.2815 15.203 39.3493 16.7941 41.2378 16.7941C42.6321 16.7941 43.5499 16.1341 43.947 14.977C44 14.8323 44.1323 14.7329 44.2823 14.7329H45.3501C45.5884 14.7329 45.7561 14.968 45.6855 15.194C45.0766 17.3094 43.5146 18.4574 41.2378 18.4574C38.3168 18.4574 36.4637 16.1432 36.4637 13.3046C36.4548 10.475 38.3168 8.15167 41.2378 8.15167Z" fill="#101010"/>
<path d="M47.4065 16.812H49.6921V10.3031H47.6536C47.4595 10.3031 47.3006 10.1403 47.3006 9.94145V9.01935C47.3006 8.82047 47.4595 8.65775 47.6536 8.65775H50.4334C51.0158 8.65775 51.4924 9.14592 51.4924 9.74257V10.0047C51.9954 8.76623 53.0808 8.45886 54.7663 8.45886C55.4105 8.45886 55.8429 8.56735 56.09 8.65775C56.2312 8.71199 56.3195 8.84759 56.3195 8.99223V9.95049C56.3195 10.1946 56.09 10.3754 55.8606 10.294C55.5606 10.1946 55.137 10.1042 54.581 10.1042C52.7808 10.1042 51.5012 11.3608 51.5012 13.5394V16.812H54.4398C54.634 16.812 54.7928 16.9747 54.7928 17.1736V18.0957C54.7928 18.2946 54.634 18.4573 54.4398 18.4573H47.4154C47.2212 18.4573 47.0624 18.2946 47.0624 18.0957V17.1736C47.0535 16.9747 47.2124 16.812 47.4065 16.812Z" fill="#101010"/>
<path d="M57.6609 13.3046C57.6609 10.475 59.4964 8.15167 62.4792 8.15167C65.4619 8.15167 67.2975 10.466 67.2975 13.3046C67.2975 16.1432 65.4619 18.4574 62.4792 18.4574C59.4964 18.4574 57.6609 16.1432 57.6609 13.3046ZM62.4792 16.7941C64.3941 16.7941 65.4972 15.212 65.4972 13.3046C65.4972 11.4061 64.3941 9.81506 62.4792 9.81506C60.5642 9.81506 59.4611 11.3971 59.4611 13.3046C59.4611 15.212 60.5642 16.7941 62.4792 16.7941Z" fill="#101010"/>
<path d="M71.286 16.8936H74.0481C74.2422 16.8936 74.4011 17.0563 74.4011 17.2552V18.1049C74.4011 18.3038 74.2422 18.4665 74.0481 18.4665H69.9093C69.7151 18.4665 69.5563 18.3038 69.5563 18.1049V6.94939H68.1796C67.9855 6.94939 67.8267 6.78667 67.8267 6.58779V5.73801C67.8267 5.53913 67.9855 5.3764 68.1796 5.3764H70.2182C70.8006 5.3764 71.2771 5.86457 71.2771 6.46122V16.8936H71.286Z" fill="#101010"/>
<path d="M77.3926 16.8936H80.1548C80.3489 16.8936 80.5078 17.0563 80.5078 17.2552V18.1049C80.5078 18.3038 80.3489 18.4665 80.1548 18.4665H76.016C75.8218 18.4665 75.663 18.3038 75.663 18.1049V6.94939H74.2863C74.0922 6.94939 73.9333 6.78667 73.9333 6.58779V5.73801C73.9333 5.53913 74.0922 5.3764 74.2863 5.3764H76.3248C76.9073 5.3764 77.3838 5.86457 77.3838 6.46122V16.8936H77.3926Z" fill="#101010"/>
<path d="M20.7734 15.8086V2.51961C20.7557 1.40767 19.8909 0.512695 18.8055 0.512695H5.26835C2.34737 0.557896 0 3.00778 0 6.00911C0 7.02161 0.264742 7.88946 0.670679 8.64884C1.01484 9.28165 1.55315 9.8783 2.08263 10.3213C2.23265 10.4478 2.16206 10.3936 2.62094 10.6829C3.25632 11.0806 3.97994 11.2795 3.97994 11.2795L3.97112 19.2258C3.98877 19.6055 4.02407 19.9671 4.12114 20.3016C4.42118 21.4226 5.1801 22.2814 6.2126 22.6972C6.64501 22.869 7.13037 22.9865 7.65103 22.9956L18.4613 23.0317C20.6145 23.0317 22.3618 21.2418 22.3618 19.0269C22.3706 17.7161 21.7353 16.5409 20.7734 15.8086Z" fill="#FFEEDA"/>
<path d="M21.038 19.1264C20.9939 20.5457 19.8555 21.6847 18.4612 21.6847L11.022 21.6576C11.6132 20.9525 11.975 20.0394 11.975 19.045C11.975 17.4811 11.0661 16.4053 11.0661 16.4053H18.47C19.8908 16.4053 21.0468 17.5895 21.0468 19.045L21.038 19.1264Z" fill="#EBC28E"/>
<path d="M2.78861 9.20034C1.93261 8.36864 1.33253 7.29286 1.33253 6.0182V5.8826C1.40313 3.70392 3.15042 1.95013 5.27718 1.88685H18.8143C19.1673 1.90493 19.4497 2.15806 19.4497 2.5287V14.2628C19.7585 14.3171 19.9085 14.3623 20.2086 14.4708C20.4469 14.5612 20.7734 14.751 20.7734 14.751V2.5287C20.7557 1.41676 19.8909 0.52179 18.8055 0.52179H5.26835C2.34737 0.56699 0 3.01687 0 6.0182C0 7.76295 0.776576 9.25458 2.04733 10.3032C2.13558 10.3756 2.215 10.466 2.44445 10.466C2.84156 10.466 3.12395 10.1405 3.1063 9.78795C3.09747 9.48962 2.97393 9.38114 2.78861 9.20034Z" fill="#101010"/>
<path d="M18.4613 15.0312H7.8452C7.1304 15.0402 6.55679 15.6279 6.55679 16.3601V17.924C6.57444 18.6473 7.17453 19.262 7.88933 19.262H8.67472V17.924H7.88933V16.3963C7.88933 16.3963 8.08347 16.3963 8.32174 16.3963C9.66309 16.3963 10.6515 17.6709 10.6515 19.036C10.6515 20.2474 9.57484 21.7932 7.7746 21.6667C6.17733 21.5582 5.31251 20.1027 5.31251 19.036V5.78312C5.31251 5.18647 4.83598 4.6983 4.25355 4.6983H3.19458V6.05433H3.97998V19.045C3.93586 21.6848 5.81552 23.0137 7.7746 23.0137L18.4702 23.0498C20.6234 23.0498 22.3707 21.2599 22.3707 19.045C22.3707 16.8302 20.6146 15.0312 18.4613 15.0312ZM21.0381 19.1264C20.994 20.5457 19.8556 21.6848 18.4613 21.6848L11.0221 21.6576C11.6134 20.9525 11.9752 20.0394 11.9752 19.045C11.9752 17.4811 11.0662 16.4053 11.0662 16.4053H18.4702C19.8909 16.4053 21.047 17.5896 21.047 19.045L21.0381 19.1264Z" fill="#101010"/>
<path d="M15.6019 6.29859H7.5979V4.94257H15.6019C15.9637 4.94257 16.2638 5.24089 16.2638 5.62058C16.2638 5.99122 15.9726 6.29859 15.6019 6.29859Z" fill="#101010"/>
<path d="M15.6019 12.6807H7.5979V11.3246H15.6019C15.9637 11.3246 16.2638 11.623 16.2638 12.0027C16.2638 12.3733 15.9726 12.6807 15.6019 12.6807Z" fill="#101010"/>
<path d="M17.0139 9.48963H7.5979V8.13361H17.005C17.3669 8.13361 17.6669 8.43193 17.6669 8.81162C17.6757 9.18226 17.3757 9.48963 17.0139 9.48963Z" fill="#101010"/>
</svg>
